X: 34
T:Soldier's Joy. HS.34
M:C|
Q:180
C:"A Hornpipe"
S:Henry Stables MS,Cumbria,late19thC
R:Hornpipe
O:Walthwaite,nr.Ambleside.
A:England
Z:vmp.Chris Partington
K:D
dB|AFDF AFDF|A2d2d2cB|AFDF AFDF|G2E2E2|FG|!
AFDF AFDF|A2d2d2fg|afdf gece|d2d2d2::!
de|fdfg fagf|edcd efge|fefg fagf|edcBA2de|!
fefg fagf|edcd efge|afdf gece|d2d2d2:||
